X:1
T:Title
%%score ( 1 2 ) { 3 | 4 }
L:1/8
Q:1/4=135
M:6/4
K:Db
V:1 treble nm="Grand Piano, Soprano"
V:2 treble 
V:3 bass nm="Choir Pad, Bass"
V:4 bass 
V:1
 [DF]2 [EA]2 [CE]2 [DF]2 [EG]2 [Gc]2 | [GB]2 [FB]4 [DF]2 [FA]4 | [DF]2 [EG]2 [EA]2 [EB]2 [Gc]4 | %3
w: By~Henry~R.~Crane * * * * *|||
 [GB]2 [GB]4- [GB]2 [FA]4 | [EG]2 [DF]2 [D_F]2 [D=F]2 [FA]2 [_F=G]2 | [FA]2 [Fd]4- [Fd]2 [GB]4 | %6
w: |||
 [_F=G]2 [=FA]2 [DF]2 [E_G]2 F2- [CF]2 | [CE]2 D4- D4- D3/2 z/ | %8
w: ||
 [DF]2 [EA]2 [CE]2 [DF]2 [EG]2 [DF]2 | [EG]2 [FA]2 [Fd]2- [Fd]4- [Fd]3/2 z/ | %10
w: ||
 [_F=G]2 [=FA]2 [_Gc]2 [FB]2 [GB]2 [Gc]2 | [Ed]2 [Ge]4- [Ge]4- [Ge]3/2 z/ | %12
w: ||
 [G_f]2 [A=f]2 [Fd]2 [DF]2 [FA]2 [GB]2 | [A_c]2 [GB]4 [G=A]2 [F_A]4 | %14
w: ||
 [_F=G]2 [=FA]2 [E_G]2 [DF]2 [DF]2 [CF]2 | [CE]2 D4- D6- | D6 z6 |] %17
w: |||
V:2
 x12 | x12 | x12 | x12 | x12 | x12 | z6 z2 .D4 | x12 | x12 | x12 | x12 | x12 | x12 | x12 | x12 | %15
 x12 | x12 |] %17
V:3
 A,2 C2 A,2 A,2 C2[K:treble] E2 | C2 D4 A,2 D4 | A,2 C2 C2 C2 E4 | C2 D2 C2[K:bass] B,2 D4 | %4
 A,2 A,2 =G,2 A,2[K:treble] D2 D2 | D2 D4- D2 D4 | D2 D2[K:bass] A,2 B,2 A,2 G,2 | %7
 G,2 F,4- F,4- F,3/2 z/ | A,2 C2 A,2 A,2 A,2 A,2 | C2 D2 A,2- A,4- A,3/2 z/ | D2 D2 E2 D2 D2 E2 | %11
 B,2 C4- C4- C3/2 z/ | C2 D2 A,2 A,2 D2 D2 | D2 D4 D2 D4 | D2 D2 C2[K:bass] A,2 A,2 G,2 | %15
 G,2 F,4- F,6- | F,6 z6 |] %17
V:4
 D,2 A,,2 A,,2 A,,2 A,2 A,2 | A,2 D,4- D,3/2 z/ D,4 | D,2 B,2 A,2 G,2 A,4 | %3
 A,,2 D,4- D,4- D,3/2 z/ | C,2 D,2 D,2 D,2 D,2 D,2 | D,2 B,4- B,2 G,4 | =A,2 _A,2 D,2 G,,2 A,,4 | %7
 A,,2 D,4- D,4- D,3/2 z/ | D,2 A,,2 A,,2 D,2 C,2 D,2 | A,,2 D,2 F,2- F,4- F,3/2 z/ | %10
 =A,2 _A,2 G,2 =G,2 A,2 A,2 | =G,2 A,4- A,4- A,3/2 z/ | A,2 D,2 D,2 D,2 D,2 D,2 | F,2 G,4 G,2 D,4 | %14
 =A,2 _A,2 A,2 A,,2 A,,2 A,,2 | A,,2 D,4- D,6- | D,6 z6 |] %17

